!!!!SEGMENT: pl-kk--kk-i-756--002_gorczycki-grzegorz-gerwazy--sepulto-domino.krn
!!!cenid: 17xx:2449
!!!COM: Gorczycki, Grzegorz Gerwazy
!!!COM-rismID: pe30009207
!!!CDT: ~1666-1734/04/30
!!!CNT: Polish
!!!OTL: Sepulto domino
!!!PDT:
!!!AGN: Sacred
!!!SMS-siglum: PL-Kk
!!!SMS-shelfmark: Kk.I.756
!!!SMS-shelfwork: 002 W
!!!SMS-variant:
!!!SMS-altvar:
!!!NIFC-rismSourceID: 1001158565
!!!NIFC-rismChildID: 1001158567
!!!NIFC-islandoraID: pl-kk:28080
!!!URL-pdf-islandora: https://repozytorium.nifc.pl/islandora/object/pl-kk:28080/datastream/PDF/view
!!!URL-scan: https://polish.musicsources.pl/pl/lokalizacje/galeria/rekopisy/7394/1 @EN{Scan on Polish Music Sources Website} @PL{Skany w portalu Dziedzictwo Muzyki Polskiej w otwartym dostępie}
!!!ONB-nifc:
!!!AIN: 1 alto 1 bass 2 tenor
!!!key: c
**kern	**text	**dynam	**kern	**text	**dynam	**kern	**text	**dynam	**kern	**text	**dynam
*part4	*part4	*part4	*part3	*part3	*part3	*part2	*part2	*part2	*part1	*part1	*part9
*staff4	*staff4	*	*staff3	*staff3	*	*staff2	*staff2	*	*staff1	*staff1	*
*ICvox	*	*	*ICvox	*	*	*ICvox	*	*	*ICvox	*	*
*Ibass	*	*	*Itenor	*	*	*Itenor	*	*	*Ialto	*	*
*I"Bas.	*	*	*I"Tenor IIgi	*	*	*I"Tenor Isy	*	*	*I"Alt	*	*
*I'B	*	*	*I'T II	*	*	*I'T I	*	*	*I'A	*	*
*clefF4	*	*	*clefG2	*	*	*clefG2	*	*	*clefG2	*	*
*	*	*	*ITrd7c12	*	*	*ITrd7c12	*	*	*	*	*
*c:	*	*	*c:	*	*	*c:	*	*	*c:	*	*
*k[b-e-a-]	*	*	*k[b-e-a-]	*	*	*k[b-e-a-]	*	*	*k[b-e-a-]	*	*
*M4/4	*	*	*M4/4	*	*	*M4/4	*	*	*M4/4	*	*
*met(c)	*	*	*met(c)	*	*	*met(c)	*	*	*met()	*	*
=1	=1	=1	=1	=1	=1	=1	=1	=1	=1	=1	=1
!!LO:TX:t=P:problem=all stems reversed
!	!	!	!LO:TX:t=P:problem=brak przenośnika oktawowego przy kluczu	!	!	!LO:TX:t=P:problem=brak przenośnika oktawowego przy kluczu	!	!	!LO:TX:t=P:problem=brak metrum	!	!
1C	Se-	.	1G	Se-	.	1c	Se-	.	1e-	Se-	.
=2	=2	=2	=2	=2	=2	=2	=2	=2	=2	=2	=2
*2\right	*	*	*	*	*	*2\right	*	*	*	*	*
!	!	!	!	!	!	!LO:SIC:v:s=2G	!	!	!	!	!
2E-\	-pul-	.	2G/	-pul-	.	2B-\	-pul-	.	2c/	-pul-	.
2C/	-to	.	2G/	-to	.	2c,\	-to	.	2e-/	-to	.
=3	=3	=3	=3	=3	=3	=3	=3	=3	=3	=3	=3
[1G	Do-	.	[1G	Do-	.	2B\	Do-	.	(>2d/	Do-	.
.	.	.	.	.	.	2c\	.	.	2e-/	.	.
=4	=4	=4	=4	=4	=4	=4	=4	=4	=4	=4	=4
2G\]	.	.	2G/]	.	.	2c\	.	.	2.d/)	.	.
2GG/	-mi-	.	2G/	-mi-	.	2B\	-mi-	.	.	.	.
.	.	.	.	.	.	.	.	.	4d/	-mi-	.
=5	=5	=5	=5	=5	=5	=5	=5	=5	=5	=5	=5
1C	-no	.	1G	-no	.	1c	-no	.	1en	-no	.
=6	=6	=6	=6	=6	=6	=6	=6	=6	=6	=6	=6
2r	.	.	2r	.	.	2r	.	.	2r	.	.
*	*	*	*2\right	*	*	*	*	*	*	*	*
!	!	!LO:DY:rj	!	!	!LO:DY:rj	!	!	!LO:DY:rj	!	!	!LO:DY:rj
2E-X\	Si-	f	2B-X\	Si-	f	2e-X\	Si-	f	2g/	Si-	f
!	!	!	!	!	!	!	!	!	!LO:LB:g=original	!	!
=7	=7	=7	=7	=7	=7	=7	=7	=7	=7	=7	=7
2E-\	-gna-	.	2B-\	-gna-	.	2e-\	-gna-	.	2g/	-gna-	.
2E-\	-tum	.	2B-\	-tum	.	2e-\	-tum	.	2g/	-tum	.
!LO:LB:g=original	!	!	!LO:LB:g=original	!	!	!LO:LB:g=original	!	!	!	!	!
=8	=8	=8	=8	=8	=8	=8	=8	=8	=8	=8	=8
2BB-,/	est	.	2B-\	est	.	2d,\	est	.	2f/	est	.
[2BBn/	mo-	.	[2d\	mo-	.	[2d\	mo-	.	[2g/	mo-	.
=9	=9	=9	=9	=9	=9	=9	=9	=9	=9	=9	=9
2BB/]	.	.	2d\]	.	.	2d\]	.	.	2g/]	.	.
2BBn/	-nu-	.	2d\	-nu-	.	2d\	-nu-	.	2g/	-nu-	.
=10	=10	=10	=10	=10	=10	=10	=10	=10	=10	=10	=10
1C	-men-	.	1c	-men-	.	1e-	-men-	.	1g	-men-	.
=11	=11	=11	=11	=11	=11	=11	=11	=11	=11	=11	=11
1GG	-tum	.	1B	-tum	.	1d,	-tum	.	1g	-tum	.
=12	=12	=12	=12	=12	=12	=12	=12	=12	=12	=12	=12
!LO:TX:a:t=1	!	!	!LO:TX:a:t=1	!	!	!	!	!	!LO:TX:a:t=1	!	!
1r	.	.	1r	.	.	1d	vol-	.	1r	.	.
=13	=13	=13	=13	=13	=13	=13	=13	=13	=13	=13	=13
!	!	!	!LO:TX:a:t=1	!	!	!	!	!	!LO:TX:a:t=1	!	!
2r	.	.	1r	.	.	4d\	-ven-	.	1r	.	.
.	.	.	.	.	.	4c\	.	.	.	.	.
2G\	vol-	.	.	.	.	4B-\	.	.	.	.	.
.	.	.	.	.	.	4An/	.	.	.	.	.
!	!	!	!	!	!	!LO:LB:g=original	!	!	!	!	!
=14	=14	=14	=14	=14	=14	=14	=14	=14	=14	=14	=14
4G\	-ven-	.	2r	.	.	1G	.	.	2r	.	.
4F\	.	.	.	.	.	.	.	.	.	.	.
4E-\	.	.	2e-X\	vol	.	.	.	.	2g/	vol-	.
4D\	.	.	.	.	.	.	.	.	.	.	.
!LO:LB:g=original	!	!	!	!	!	!	!	!	!LO:LB:g=original	!	!
=15	=15	=15	=15	=15	=15	=15	=15	=15	=15	=15	=15
1C	.	.	(4e-\	ven-	.	2G,/	-tes	.	(>4g^	-ven-	.
.	.	.	4d\	.	.	.	.	.	4f/	.	.
.	.	.	4c\	.	.	2g\	vol-	.	4e-/	.	.
.	.	.	4B\	.	.	.	.	.	4d/	.	.
!	!	!	!LO:LB:g=original	!	!	!	!	!	!	!	!
=16	=16	=16	=16	=16	=16	=16	=16	=16	=16	=16	=16
2C,/	-tes	.	2c\)	.	.	4g\	.	.	1e-	.	.
.	.	.	.	.	.	4f\	.	.	.	.	.
2c\	vol-	.	[2c\	-tes	.	4e-\	.	.	.	.	.
.	.	.	.	.	.	4d\	.	.	.	.	.
=17	=17	=17	=17	=17	=17	=17	=17	=17	=17	=17	=17
4c\	-ven-	.	2c\]	.	.	4e-\	.	.	2e-/)	.	.
4B-\	.	.	.	.	.	4d\	.	.	.	.	.
4A-\	.	.	(4c\	vol-	.	4c\	.	.	4f/	-tes	.
4G\	.	.	4B\)	.	.	4d\	.	.	4g/	vol-	.
=18	=18	=18	=18	=18	=18	=18	=18	=18	=18	=18	=18
2F\	.	.	2c\	-ven-	.	4f\	.	.	2a-X/	-ven-	.
.	.	.	.	.	.	4e-\	.	.	.	.	.
2C,/	-tes	.	2e-\	-tes	.	4d\	.	.	2g/	-tes	.
.	.	.	.	.	.	4c\	-tes	.	.	.	.
!	!	!	!	!	!	!LO:LB:g=original	!	!	!	!	!
=19	=19	=19	=19	=19	=19	=19	=19	=19	=19	=19	=19
2.G\	la-	.	2.c\	la-	.	2.d\	la-	.	2.g/	la-	.
4G\	-pi-	.	4B\	-pi-	.	4d\	-pi-	.	4g/	-pi-	.
!	!	!	!	!	!	!	!	!	!LO:LB:g=original	!	!
=20	=20	=20	=20	=20	=20	=20	=20	=20	=20	=20	=20
2G,\	-dem	.	2B\	-dem	.	2d,\	-dem	.	2g/	-dem	.
2C/	ad	.	2G/	ad	.	2e-\	ad	.	2e-/	ad	.
!LO:LB:g=original	!	!	!LO:LB:g=original	!	!	!	!	!	!	!	!
=21	=21	=21	=21	=21	=21	=21	=21	=21	=21	=21	=21
2.BB-/	o-	.	2.B-X\	o-	.	2.e-\	o-	.	2.f/	os-	.
4BB-/	-sti-	.	4B-\	-sti-	.	4e-\	-sti-	.	4f/	-ti-	.
=22	=22	=22	=22	=22	=22	=22	=22	=22	=22	=22	=22
2BB-,/	-um	.	2B-\	-um	.	2d,\	-um	.	2f/	-num	.
[2G\	mo-	.	[2G/	mo-	.	[2B-\	mo-	.	[>2d/	mo-	.
=23	=23	=23	=23	=23	=23	=23	=23	=23	=23	=23	=23
2G\]	.	.	2G/]	.	.	2B-\]	.	.	2d/]	.	.
2C/	-nu-	.	2G/	-nu-	.	2c\	-nu-	.	2e-/	-nu-	.
!	!	!	!	!	!	!LO:LB:g=original	!	!	!	!	!
=24	=24	=24	=24	=24	=24	=24	=24	=24	=24	=24	=24
1D	-men-	.	2G/	-men-	.	1A	-men-	.	1d	-men-	.
.	.	.	2F#X/	.	.	.	.	.	.	.	.
=25	=25	=25	=25	=25	=25	=25	=25	=25	=25	=25	=25
1GG	-ti	.	1G	-ti	.	1B	-ti	.	1d	-ti	.
!	!	!	!	!	!	!	!	!	!LO:LB:g=original	!	!
=26	=26	=26	=26	=26	=26	=26	=26	=26	=26	=26	=26
2r	.	.	2r	.	.	2r	.	.	2r	.	.
2E-\	po-	.	2B-X\	po-	.	2e-\	po-	.	2g/	po-	.
!LO:LB:g=original	!	!	!LO:LB:g=original	!	!	!	!	!	!	!	!
=27	=27	=27	=27	=27	=27	=27	=27	=27	=27	=27	=27
2G\	-nen-	.	2B-\	-nen-	.	2e-\	-nen-	.	2g/	-nen-	.
!LO:SIC:v:s=2A	!	!	!	!	!	!	!	!	!	!	!
2A-\	-tes	.	2B-\	-tes	.	2e-\	-tes	.	2g/	-tes	.
=28	=28	=28	=28	=28	=28	=28	=28	=28	=28	=28	=28
2.B-\	mi-	.	2.B-\	mi-	.	2.e-\	mi-	.	2.f/	mi-	.
4B-\	-li-	.	4B-\	-li-	.	4d\	-li-	.	4f/	-li-	.
=29	=29	=29	=29	=29	=29	=29	=29	=29	=29	=29	=29
2B-,\	-tes	.	2B-\	-tes	.	2d,\	-tes	.	2f/	-tes	.
2BB-/	po-	.	2B-\	po-	.	2d\	po-	.	2f/	po-	.
!	!	!	!	!	!	!LO:PB:g=original	!	!	!	!	!
=30	=30	=30	=30	=30	=30	=30	=30	=30	=30	=30	=30
2D\	-nen-	.	2B-\	-nen-	.	2d\	-nen-	.	2f/	-nen-	.
2En\	-tes	.	2B-\	-tes	.	2d\	-tes	.	2g/	-tes	.
=31	=31	=31	=31	=31	=31	=31	=31	=31	=31	=31	=31
2.F\	mi-	.	2.B-\	mi-	.	2.c\	mi-	.	2.c/	mi-	.
4F\	-li-	.	4A/	-li-	.	4c\	-li-	.	4f/	-li-	.
!LO:PB:g=original	!	!	!	!	!	!	!	!	!LO:PB:g=original	!	!
=32	=32	=32	=32	=32	=32	=32	=32	=32	=32	=32	=32
1F	-tes	.	1A	-tes	.	1c	-tes	.	1f	-tes	.
!	!	!	!LO:PB:g=original	!	!	!	!	!	!	!	!
=33	=33	=33	=33	=33	=33	=33	=33	=33	=33	=33	=33
2r	.	.	2r	.	.	2r	.	.	2r	.	.
2D\	qui	.	2A/	qui	.	2d\	Qui	.	2f#X/	qui	.
=34	=34	=34	=34	=34	=34	=34	=34	=34	=34	=34	=34
2BB-/	cu-	.	2B-X\	cu-	.	2d\	cu-	.	2g/	cu-	.
2GG/	-sto-	.	2B-\	-sto-	.	(2B-\	-sto	.	2g/	-sto-	.
=35	=35	=35	=35	=35	=35	=35	=35	=35	=35	=35	=35
!	!	!	!LO:SIC:v:s=(1A	!	!	!	!	!	!	!	!
1D	-di-	.	(>1A-	-di-	.	4d\)	.	.	2g/	.	.
.	.	.	.	.	.	(4A/	.	.	.	.	.
.	.	.	.	.	.	2d,\)	.	.	2f#X/	.	.
!	!	!	!	!	!	!LO:LB:g=original	!	!	!	!	!
=36	=36	=36	=36	=36	=36	=36	=36	=36	=36	=36	=36
1E-,	-rent	.	2G/)	.	.	2d\	di-	.	2g/	-di-	.
.	.	.	2G/	-rent	.	2c\	-rent	.	2c/	-rent	.
=37	=37	=37	=37	=37	=37	=37	=37	=37	=37	=37	=37
1D	il-	.	2G/	il-	.	(4c\	il-	.	1d	il-	.
.	.	.	.	.	.	4B-\	.	.	.	.	.
.	.	.	2F#X/	.	.	2A/)	.	.	.	.	.
=38	=38	=38	=38	=38	=38	=38	=38	=38	=38	=38	=38
2.GG/	-lid	.	2.G/	-lud	.	2B,\	-lud	.	2.d/	-lud	.
.	.	.	.	.	.	2d\	qui	.	.	.	.
4r	.	.	4r	.	.	.	.	.	4r	.	.
!	!	!	!LO:LB:g=original	!	!	!	!	!	!LO:LB:g=original	!	!
=39	=39	=39	=39	=39	=39	=39	=39	=39	=39	=39	=39
2r	.	.	2r	.	.	2B\	cu-	.	2r	.	.
2G\	qui	.	2B\	qui	.	2G/	-sto-	.	2g/	qui	.
!LO:LB:g=original	!	!	!	!	!	!	!	!	!	!	!
=40	=40	=40	=40	=40	=40	=40	=40	=40	=40	=40	=40
2E-X\	cu-	.	2c\	cu-	.	2c\	-di-	.	2g/	cu-	.
2C/	-sto-	.	2c\	-sto-	.	2e-,\	-rent	.	2e-/	-sto-	.
!	!	!	!	!	!	!LO:LB:g=original	!	!	!	!	!
=41	=41	=41	=41	=41	=41	=41	=41	=41	=41	=41	=41
1G	-di-	.	(2c\	-di-	.	(1d	il-	.	4d/	-di-	.
.	.	.	.	.	.	.	.	.	4d/	-rent	.
.	.	.	2B\)	.	.	.	.	.	[>2g/	il-	.
=42	=42	=42	=42	=42	=42	=42	=42	=42	=42	=42	=42
1A-X,	-rent	.	1c	-rent	.	1c	.	.	2g/]	.	.
.	.	.	.	.	.	.	.	.	[>2f/	.	.
=43	=43	=43	=43	=43	=43	=43	=43	=43	=43	=43	=43
1G	il-	.	(2d\	il-	.	2B\	.	.	2f/]	.	.
.	.	.	[2G/)	.	.	2c\	.	.	2e-X/	.	.
=44	=44	=44	=44	=44	=44	=44	=44	=44	=44	=44	=44
1GG	.	.	1G]	.	.	2c\	.	.	1d	.	.
.	.	.	.	.	.	2B\	.	.	.	.	.
!	!	!	!	!	!	!	!	!	!LO:LB:g=original	!	!
=45	=45	=45	=45	=45	=45	=45	=45	=45	=45	=45	=45
0C	-lud	.	0G	-lud	.	0c)	-lud	.	0en	-lud	.
==	==	==	==	==	==	==	==	==	==	==	==
*-	*-	*-	*-	*-	*-	*-	*-	*-	*-	*-	*-
!!!system-decoration: [*]
!!!RDF**kern: > = above
!!!RDF**kern: < = below
!!!ENC: Berenika Jozajtis
!!!END: 2023-07-10
!!!EED: Andrzej Kubiczek
!!!EEV: 2025-02-16
!!!YEC: Copyright 2024 Narodowy Instytut Fryderyka Chopina (https://polishscores.org)
!!!YEM: License CC-BY-4.0 (https://creativecommons.org/licenses/by/4.0)
